X:1
T:Miss Ramsey's
L:1/8
M:2/2
I:linebreak $
K:D
V:1 treble 
V:1
 D2 DF AF F2 | BF F2 AFEF | D3 F ADFA |1 BFAF GFEF :|2 BFAF EFDg |:$ fAdf edBc | dedB ABde |1 %7
 fAdf edBc | dBAF EFDg :|2 f3 e defe |$ dBAF GFEF || %11
